humanity-icon-theme/Humanity/apps/24/baobab.svg

<?xml version="1.0" encoding="UTF-8" standalone="no"?>
<!-- Created with Inkscape (http://www.inkscape.org/) -->

<svg
   xmlns:svg="http://www.w3.org/2000/svg"
   xmlns="http://www.w3.org/2000/svg"
   xmlns:xlink="http://www.w3.org/1999/xlink"
   version="1.0"
   width="24"
   height="24"
   id="svg2471">
  <defs
     id="defs2473">
    <linearGradient
       id="linearGradient6297">
      <stop
         id="stop6299"
         style="stop-color:#dc8378;stop-opacity:1"
         offset="0" />
      <stop
         id="stop6281"
         style="stop-color:#9f3529;stop-opacity:1"
         offset="1" />
    </linearGradient>
    <linearGradient
       id="linearGradient6687">
      <stop
         id="stop6689"
         style="stop-color:white;stop-opacity:1"
         offset="0" />
      <stop
         id="stop6691"
         style="stop-color:white;stop-opacity:0"
         offset="1" />
    </linearGradient>
    <linearGradient
       id="linearGradient6699">
      <stop
         id="stop6701"
         style="stop-color:#f8b17e;stop-opacity:1"
         offset="0" />
      <stop
         id="stop6295"
         style="stop-color:#da3e46;stop-opacity:1"
         offset="1" />
    </linearGradient>
    <linearGradient
       id="linearGradient2456">
      <stop
         id="stop2458"
         style="stop-color:black;stop-opacity:1"
         offset="0" />
      <stop
         id="stop2460"
         style="stop-color:black;stop-opacity:0"
         offset="1" />
    </linearGradient>
    <linearGradient
       x1="-20.75"
       y1="29"
       x2="-19.5"
       y2="18.75"
       id="linearGradient5543"
       xlink:href="#linearGradient6687"
       gradientUnits="userSpaceOnUse"
       gradientTransform="matrix(0.8085144,0,0,0.9677472,27.05858,-10.588843)" />
    <linearGradient
       x1="-20.75"
       y1="29"
       x2="-19.5"
       y2="18.75"
       id="linearGradient5546"
       xlink:href="#linearGradient6687"
       gradientUnits="userSpaceOnUse"
       gradientTransform="matrix(0.8085144,0,0,0.9677475,27.05858,-12.588849)" />
    <linearGradient
       x1="-25.286484"
       y1="17.743382"
       x2="-16.964699"
       y2="32.402924"
       id="linearGradient5559"
       xlink:href="#linearGradient6699"
       gradientUnits="userSpaceOnUse"
       gradientTransform="matrix(0.8314752,0,0,1.0063685,27.496278,-13.609279)" />
    <radialGradient
       cx="28.283663"
       cy="47.400623"
       r="13.804391"
       fx="28.283663"
       fy="47.400623"
       id="radialGradient5563"
       xlink:href="#linearGradient2456"
       gradientUnits="userSpaceOnUse"
       gradientTransform="matrix(0.8692887,0,0,0.6413419,-12.586665,-15.253333)" />
    <linearGradient
       x1="6.4584079"
       y1="3"
       x2="9.3125"
       y2="16.1875"
       id="linearGradient6411"
       xlink:href="#linearGradient6297"
       gradientUnits="userSpaceOnUse" />
  </defs>
  <g
     id="g5512">
    <path
       d="M 24,15.146667 C 24,20.036228 18.627417,24 12,24 5.3725825,24 0,20.036228 0,15.146667 0,10.257106 5.3725825,6.2933335 12,6.2933335 c 6.627417,0 12,3.9637725 12,8.8533335 l 0,0 z"
       id="path1693"
       style="fill:url(#radialGradient5563);fill-opacity:1;fill-rule:evenodd;stroke:none" />
    <path
       d="M 12,2 C 8.0492443,1.9816107 3.8624593,3.8003943 1.90625,7.375 1.0407033,8.8526194 0.95461707,10.583572 1,12.25 0.89339175,14.193518 1.3699082,16.174367 2.59375,17.71875 4.3829242,20.04858 7.1269352,21.412564 10,21.84375 L 10,11 22.96875,11 c -0.0038,-0.208541 -1.26e-4,-0.417779 0,-0.625 C 22.725105,6.8930046 19.981464,4.112621 16.84375,2.90625 15.31094,2.2968394 13.648046,1.9997103 12,2 z"
       id="path6385"
       style="fill:url(#linearGradient6411);fill-opacity:1;fill-rule:nonzero;stroke:none" />
    <path
       d="M 21.655642,10.917529 C 20.509384,7.5094182 16.622675,5 12.000268,5 7.37786,5 3.4911515,7.5094182 2.3448923,10.917529 l -0.3448918,0 0,2.083149 C 2.0000005,17.418803 6.477724,21 12.000268,21 c 5.523077,0 9.999733,-3.581197 9.999733,-7.999322 l 0,-2.083149 -0.344359,0 0,0 z"
       id="path3933"
       style="fill:#b40000;fill-opacity:1;fill-rule:nonzero;stroke:none" />
    <path
       d="m 15,11 0,10.65625 c 4.585061,-1.054142 8,-4.457443 8,-8.59375 L 22.97,11 15,11 z"
       id="path6402"
       style="fill:#285378;fill-opacity:1;fill-rule:nonzero;stroke:none" />
    <path
       d="m 10,18 0,3.84375 c 1.447011,0.223468 2.924761,0.220466 4.34375,-0.03125 0.356328,-0.06051 0.710254,-0.156746 1.0625,-0.25 L 15.40625,18 10,18 z"
       id="path6413"
       style="fill:#5c852f;fill-opacity:1;fill-rule:nonzero;stroke:none" />
    <path
       d="m 22.000001,11 c 0,4.418802 -4.476656,8 -9.999733,8 -5.5230775,0 -10.0002675,-3.581198 -10.0002675,-8 0,-4.4188016 4.477723,-8 10.0002675,-8 5.523077,0 9.999733,3.5811984 9.999733,8 l 0,0 z"
       id="path3935"
       style="fill:url(#linearGradient5559);fill-opacity:1;fill-rule:nonzero;stroke:none" />
    <path
       d="m 15,11 0,9.625 C 19.05567,19.604837 22,16.581133 22,13 l 0,-2 -7,0 z"
       id="path5580"
       style="fill:#3774a5;fill-opacity:1;fill-rule:nonzero;stroke:none" />
    <path
       d="M 22.000001,11 C 22,16.418873 15.491767,18.706379 14.87226,18.676777 L 12.000001,11 l 10,0 z"
       id="path3939"
       style="fill:#8badea;fill-opacity:1;fill-rule:nonzero;stroke:none" />
    <path
       d="M 15.4375,18.5 10,18.8 10,20.84375 C 10.650955,20.950321 11.309682,21 12,21 c 1.208173,0 2.365379,-0.185994 3.4375,-0.5 l 0,-2 z"
       id="path5568"
       style="fill:#7cb040;fill-opacity:1;fill-rule:nonzero;stroke:none" />
    <path
       d="m 12.000001,11 3.45,7.536528 c -2.45,0.702112 -4.95,0.443328 -5.45,0.271318 l 2,-7.807846 z"
       id="path3943"
       style="fill:#d7e866;fill-opacity:1;fill-rule:nonzero;stroke:none" />
    <path
       d="m 21.500044,11.000001 c 0,4.14216 -4.253313,7.500043 -9.500044,7.500043 -5.2467298,0 -9.500044,-3.357883 -9.500044,-7.500043 0,-4.1421607 4.2533142,-7.5000449 9.500044,-7.5000449 5.246731,0 9.500044,3.3578842 9.500044,7.5000449 l 0,0 z"
       id="path5959"
       style="opacity:0.31111115;fill:none;stroke:url(#linearGradient5546);stroke-width:0.99991208;stroke-linecap:butt;stroke-linejoin:miter;stroke-miterlimit:4;stroke-opacity:1;stroke-dasharray:none;stroke-dashoffset:0;marker:none;visibility:visible;display:block;overflow:visible" />
    <path
       d="m 21.500043,12.999999 c 0,4.14216 -4.253314,7.500044 -9.500044,7.500044 -5.2467277,0 -9.5000416,-3.357884 -9.5000416,-7.500044 0,-4.1421586 4.2533139,-7.5000418 9.5000416,-7.5000418 5.24673,0 9.500044,3.3578832 9.500044,7.5000418 l 0,0 z"
       id="path6707"
       style="opacity:0.13333327;fill:none;stroke:url(#linearGradient5543);stroke-width:0.99991477;stroke-linecap:butt;stroke-linejoin:miter;stroke-miterlimit:4;stroke-opacity:1;stroke-dasharray:none;stroke-dashoffset:0;marker:none;visibility:visible;display:block;overflow:visible" />
  </g>
</svg>

<?xml version="1.0" encoding="UTF-8" standalone="no"?>
<!-- Created with Inkscape (http://www.inkscape.org/) -->
<svg id="svg2471" xmlns="http://www.w3.org/2000/svg" height="24" width="24" version="1.0" xmlns:xlink="http://www.w3.org/1999/xlink">
 <defs id="defs2473">
  <linearGradient id="linearGradient6687">
   <stop id="stop6689" style="stop-color:#fff" offset="0"/>
   <stop id="stop6691" style="stop-color:#fff;stop-opacity:0" offset="1"/>
  </linearGradient>
  <linearGradient id="linearGradient5543" y2="18.75" xlink:href="#linearGradient6687" gradientUnits="userSpaceOnUse" x2="-19.5" gradientTransform="matrix(.80851 0 0 .96775 27.059 -10.589)" y1="29" x1="-20.75"/>
  <linearGradient id="linearGradient5546" y2="18.75" xlink:href="#linearGradient6687" gradientUnits="userSpaceOnUse" x2="-19.5" gradientTransform="matrix(.80851 0 0 .96775 27.059 -12.589)" y1="29" x1="-20.75"/>
  <linearGradient id="linearGradient5559" y2="32.403" gradientUnits="userSpaceOnUse" x2="-16.965" gradientTransform="matrix(.83148 0 0 1.0064 27.496 -13.609)" y1="17.743" x1="-25.286">
   <stop id="stop6701" style="stop-color:#f8b17e" offset="0"/>
   <stop id="stop6295" style="stop-color:#da3e46" offset="1"/>
  </linearGradient>
  <radialGradient id="radialGradient5563" gradientUnits="userSpaceOnUse" cy="47.401" cx="28.284" gradientTransform="matrix(.86929 0 0 .64134 -12.587 -15.253)" r="13.804">
   <stop id="stop2458" offset="0"/>
   <stop id="stop2460" style="stop-opacity:0" offset="1"/>
  </radialGradient>
  <linearGradient id="linearGradient6411" y2="16.188" gradientUnits="userSpaceOnUse" x2="9.3125" y1="3" x1="6.4584">
   <stop id="stop6299" style="stop-color:#dc8378" offset="0"/>
   <stop id="stop6281" style="stop-color:#9f3529" offset="1"/>
  </linearGradient>
 </defs>
 <g id="g5512">
  <path id="path1693" style="fill:url(#radialGradient5563);fill-rule:evenodd" d="m24 15.147c0 4.889-5.373 8.853-12 8.853-6.6274 0-12-3.964-12-8.853 0-4.89 5.3726-8.8537 12-8.8537s12 3.9638 12 8.8533z"/>
  <path id="path6385" style="fill:url(#linearGradient6411)" d="m12 2c-3.9508-0.0184-8.1375 1.8004-10.094 5.375-0.8653 1.4776-0.95138 3.209-0.906 4.875-0.10661 1.944 0.3699 3.924 1.5938 5.469 1.7891 2.33 4.5331 3.694 7.4062 4.125v-10.844h12.969c-0.0038-0.20854-0.000126-0.41778 0-0.625-0.244-3.482-2.988-6.2624-6.125-7.4688-1.533-0.6094-3.196-0.9065-4.844-0.9062z"/>
  <path id="path3933" style="fill:#b40000" d="m21.656 10.918c-1.147-3.4086-5.033-5.918-9.656-5.918-4.6221 0-8.5088 2.5094-9.6551 5.918h-0.34489v2.0831c0 4.418 4.4777 7.999 10 7.999 5.5231 0 9.9997-3.5812 9.9997-7.9993v-2.0831h-0.34436z"/>
  <path id="path6402" style="fill:#285378" d="m15 11v10.656c4.5851-1.0541 8-4.4574 8-8.5938l-0.03-2.062h-7.97z"/>
  <path id="path6413" style="fill:#5c852f" d="m10 18v3.8438c1.447 0.22347 2.9248 0.22047 4.3438-0.03125 0.35633-0.06051 0.71025-0.15675 1.0625-0.25v-3.563h-5.406z"/>
  <path id="path3935" style="fill:url(#linearGradient5559)" d="m22 11c0 4.4188-4.4767 8-9.9997 8-5.5231 0-10-3.5812-10-8s4.4777-8 10-8c5.5231 0 9.9997 3.5812 9.9997 8z"/>
  <path id="path5580" style="fill:#3774a5" d="m15 11v9.625c4.056-1.02 7-4.044 7-7.625v-2h-7z"/>
  <path id="path3939" style="fill:#8badea" d="m22 11c0 5.419-6.508 7.706-7.128 7.677l-2.872-7.677h10z"/>
  <path id="path5568" style="fill:#7cb040" d="m15.438 18.5-5.438 0.3v2.044c0.651 0.106 1.31 0.156 2 0.156 1.2082 0 2.3654-0.18599 3.4375-0.5v-2z"/>
  <path id="path3943" style="fill:#d7e866" d="m12 11 3.45 7.5365c-2.45 0.70211-4.95 0.44333-5.45 0.27132l2-7.8078z"/>
  <path id="path5959" style="opacity:.31111;stroke:url(#linearGradient5546);stroke-width:.99991;display:block;fill:none" d="m21.5 11c0 4.1422-4.2533 7.5-9.5 7.5s-9.5-3.3579-9.5-7.5c0-4.1422 4.2533-7.5 9.5-7.5s9.5 3.3579 9.5 7.5z"/>
  <path id="path6707" style="opacity:.13333;stroke:url(#linearGradient5543);stroke-width:.99991;display:block;fill:none" d="m21.5 13c0 4.1422-4.2533 7.5-9.5 7.5s-9.5-3.3579-9.5-7.5c0-4.1422 4.2533-7.5 9.5-7.5s9.5 3.3579 9.5 7.5z"/>
 </g>
</svg>
